X: 21
T: The Buds of May
%R: reel, march
B: Cahusac "Annual Collection of Twenty-four favorite Country Dances For the Year 1809", p.11 #1
F: http://imslp.org/wiki/24_Country_Dances_for_the_Year_1809_%28Various%29
F: http://javanese.imslp.info/files/imglnks/usimg/0/0d/IMSLP351863-PMLP71785-wm_cahusac_24_dances_1809.pdf
Z: 2015 by John Chambers  <jc:trillian.mit.edu>
M: 2/4
L: 1/8
K: D
% - - - - - - - - - - - - - - - - - - - - - - - - - - - - -
|:\
gbb2 | faa2 | egfd | ecBA |\
gbb2 | faa2 | Bdce | d2D2 :|
|:\
fafd | gbge | fafd | cee2 |\
fafd | gbge | Adce | d2D2 :|
% - - - - - - - - - - Dance description - - - - - - - - - -
%%begintext align
%% Hand 3 with 2d Lady, same with 2d Gent:
%% Down the mid: up again, Right & left.
%%endtext

%%sep 1 1 500
%%sep 1 1 500
